X:15
C:Page 08
T:Ellen of Rosenby. MBe.15
S:Matthew Betham MS, Towcett Cumbria, 1815
O:England;Cumbria;Towcett
Z:VMP – Hugh Taylor, 2012
M:C
L:1/8
Q:1/2=80
R:.Reel
N:NB1-These three notes are written as a triplet. I have made them into a tuplet.
N:NB2-The D note looks like it is written as a quaver. I have made it a crotchet.
K:G
~BABG FEFD|”^NB1″(3(GBA) G2 FA d2|~BABG FEFD|GBAc BG G2:|
|:d~gfe dBGB|cedB AF “^NB2″D2|d~gfe dBGB|cedB G2 G2:|

